X: 6787
T: Chapel Bell, The
R: jig
M: 6/8
K: Edorian
DFA|:~B3 EFA|~B2e dBd|edB BAB|dfe dBA|
~B3 EFA|~B2e dBd|edB BAF|1 AFE ~E3:|2 AFE EFA||
|:Bee efe|def ~f2e|dBB BAB|dfe dBA|
Bee efe|def ~f2e|dBB BAF|1 AFE EFA:|2 AFE ~E3||

